!!!OTL: LETZTE ROSE WIE MAGST DU SO EINSAM VERBLUEHN
!!!ARE: Europa, Mitteleuropa, Deutschland; Ireland
!!!SCT: B0726
!!!YEM: Copyright 1995, estate of Helmut Schaffrath.
**kern
*ICvox
*Ivox
*M3/4
*k[b-]
*F:
{8.f
16g
=1
4a
4ff
8.dd
16cc
=2
4cc
8a
8r}
{8.f
16g
=3
8a
4cc
8a
8.g
16f
=4
2f}
{8.f
16g
=5
4a
4ff
8.dd
16cc
=6
4cc
8a
8r}
{8.f
16g
=7
8a
4cc
8a
8.g
16f
=8
2f}
{8.cc
16a
=9
4.ff
8ee
8.dd
16cc
=10
4cc
8a
8r}
{8.cc
16a
=11
4.ff
8ee
8dd
8cc#
=12
8dd
16dd
16ee
4ff}
{8.f
16g
=13
4a
8.ff
16ee
8.dd
16cc
=14
4cc
8a
8r}
{8.f
16g
=15
8a
4cc
8a
8.g
16f
=16
4f
4r}
==
!!!AGN: Jahreszeiten - Lied, Herbst
!!!ONB: ESAC (Essen Associative Code) Database: BOEHME
!!!AMT: simple triple
!!!AIN: vox
!!!EED: Helmut Schaffrath
!!!EEV: 1.0
*-
